X:1
T:Final Fantasy VI - Kefka (4 hand piano reduction)
T:Final Fantasy VI - Kefka (4 hand piano reduction) 
T:Nobuo Uematsu arr. notfge 
T:Original title in Japanese: 魔導士ケフカ (Madōshi Kefuka)
C:Nobuo Uematsu
%%score { 1 | 2 | ( 3 5 ) | 4 }
L:1/8
Q:1/2=80
M:2/2
K:Db
V:1 treble nm="Piano" snm="Pno."
V:2 bass 
V:3 treble 
V:5 treble 
V:4 treble 
V:1
|: z8 | z8 | z8 |[M:3/2] z12 |[M:2/2] z8 | z8 | z8 | z8 | .d.B.f.c .b.d.c'.e | %9
 .d'.f.b.d .e'.g.d'.c' | .d'.f.b.d .=a.c.c'.e | .b.d.g.B .e.=A.d.f | z2 .f2 .f2 .f2 | %13
 .f2 .f2 a2 .g2 | =e2 .f2 .g2 .a2 | g2 .f2 .a/.=g/._g/.f/ =e2 | z2 .B2 .B2 .B2 | .B2 .B2 d2 .c2 | %18
 =A2 .B2 .c2 .d2 | c2 .B2 .=A2 B2 |!8va(! .f'2 z c' d'.b z d' | %21
 .e'2 .e'2 d'/4e'/4d'/4e'/4d'/4e'/4d'/ =a2!8va)! | .B/.F/.B/.d/ .f/.F/.B/.F/ .B/.f/.b/.d'/ f'2 | %23
 z8 | .B/.F/.B/.d/ .f/.F/.B/.F/ .B/.f/.b/.d'/ f'2 | z8 | %26
 .G/.D/.G/.B/ .d/.D/.G/.D/ .G/.d/.g/.b/ d'2 | z8 | .G/.D/.G/.B/ .d/.D/.G/.D/ .G/.d/.g/.b/ d'2 | %29
 z8 | .B/.F/.B/.d/ .f/.F/.B/.F/ .B/.f/.b/.d'/ f'2 | z8 | %32
 .B/.F/.B/.d/ .f/.F/.B/.F/ .B/.f/.b/.d'/ f'2 | z8 | .G/.D/.G/.B/ .d/.D/.G/.D/ .G/.d/.g/.b/ d'2 | %35
 z8 | .G/.D/.G/.B/ .d/.D/.G/.D/ .G/.d/.g/.b/ d'2 | z8 |!8va(! .f'2 z c' d'.b z d' | %39
 .e'2 .e'2 d'/4e'/4d'/4e'/4d'/4e'/4d'/ =a2!8va)! | .F2 .F2 .F2 z2 | z8 | .F2 .F2 .F2 z2 | %43
 (EDCD) .E2 z2 | .F2 .F2 .F2 .F2 | (f2 b2 =a2 bc' | b2 f2 b2 d'2) | f'8- | f'8 | _f'8 | %50
 z2 _f'e' d'c'bg :| %51
V:2
|: z8 | z8 | z8 |[M:3/2] z12 |[M:2/2] z8 | z8 | z8 | z8 | z8 | z8 | z8 | z8 |[K:treble] z8 | z8 | %14
 z8 | z8 | z8 | z8 | z8 | z8 | .f2 z c d.B z d | .e2 .e2 d2 .=A2 | z2 .F2 .[Ff]2 .[Ff]2 | %23
 .[Ff]2 .[Ff]2 [Aa]2 .[Gg]2 | [=E=e]2 .F2 .[Gg]2 .[Aa]2 | [Gg]2 .[Ff]2 .a/.=g/._g/.f/ =e2 | %26
 z2 .[Bb]2 .[Bb]2 .[Bb]2 | .[Bb]2 .[Bb]2 [dd']2 .[cc']2 | [=A=a]2 .[Bb]2 .[cc']2 .d2 | %29
 [cc']2 .[Bb]2 .[=A=a]2 .[Bb]2 | z2 .F2 .[Ff]2 .[Ff]2 | .[Ff]2 .[Ff]2 [Aa]2 .[Gg]2 | %32
 [=E=e]2 .F2 .[Gg]2 .[Aa]2 | [Gg]2 .[Ff]2 .a/.=g/._g/.f/ =e2 | z2 .[Bb]2 .[Bb]2 .[Bb]2 | %35
 .[Bb]2 .[Bb]2 [dd']2 .[cc']2 | [=A=a]2 .[Bb]2 .[cc']2 .d2 | [cc']2 .[Bb]2 .[=A=a]2 .[Bb]2 | %38
 .f2 z c d.B z d | .e2 .e2 d2 .=A2 |[K:bass3] .B,2 .C2 .D2 z2 | (CB,=A,B,) .C2 z2 | %42
 .B,2 .C2 .D2 z2 | (CB,=A,B,) .C2 z2 |[K:treble] .B,2 .C2 .D2 .E2 | z8 | z8 | z8 | z8 | z8 | z8 :| %51
V:3
|: .B2 .c2 .d2 .e2 | .f2 .d2 g2 fe | .f2 .d2 .c2 .e2 |[M:3/2] .d2 .B2 =A2 Bc .B2 .G2 | %4
[M:2/2] F2 .G2 F2 .G2 | .=E2 .F2 z4 | G2 .F2 G2 .F2 | =E2 .F2 .G2 F2 |[K:treble] .B2 .c2 .d2 .e2 | %9
 .f2 .d2 g2 fe | .f2 .d2 .c2 .e2 | .d2 .B2 =A2 Bc | z2 .[DF]2 .[DF]2 .[DF]2 | %13
 .[DF]2 .[DF]2 [CA]2 .[EG]2 | .[DF]2 .[DF]2 .[DG]2 .[DA]2 | .[DB]2 .[DB]2 .[Dc]2 .[Dc]2 | %16
 .[DG]2 .[DG]2 .[DG]2 .[DG]2 | .[DG]2 .[DG]2 [=EG]2 .[_EG]2 | .[DG]2 .[DG]2 .[DG]2 .[DG]2 | %19
 .[DG]2 .[DG]2 .[DG]2 .[DG]2 |[K:bass] .F,2 z C, D,.B,, z D, | .E,2 .E,2 D,2 .=A,,2 | %22
[K:treble] .[B,D]2 .[B,D]2 .[B,D]2 .[B,D]2 | .[B,D]2 .[B,D]2 [B,C]2 .[CE]2 | %24
 .[B,D]2 .[B,D]2 .[B,D]2 .[B,D]2 | .[B,D]2 .[B,D]2 [B,D]2 .[B,D]2 | %26
 .[B,D]2 .[B,D]2 .[B,D]2 .[B,D]2 | .[B,D]2 .[B,D]2 [B,=E]2 [B,_E]2 | %28
 .[B,D]2 .[B,D]2 .[B,D]2 .[B,D]2 | .[B,D]2 .[B,D]2 .[B,D]2 .[B,D]2 | %30
 .[B,D]2 .[B,D]2 .[B,D]2 .[B,D]2 | .[B,D]2 .[B,D]2 [B,C]2 .[CE]2 | %32
 .[B,D]2 .[B,D]2 .[B,D]2 .[B,D]2 | .[B,D]2 .[B,D]2 [B,D]2 .[B,D]2 | %34
 .[B,D]2 .[B,D]2 .[B,D]2 .[B,D]2 | .[B,D]2 .[B,D]2 [B,=E]2 [B,_E]2 | %36
 .[B,D]2 .[B,D]2 .[B,D]2 .[B,D]2 | .[B,D]2 .[B,D]2 .[B,D]2 .[B,D]2 | %38
[K:bass] .F,2 z C, D,.B,, z D, | .E,2 .E,2 D,2 .=A,,2 | .B,,2 .C,2 .D,2 z2 | %41
 (C,B,,=A,,B,,) .C,2 z2 | .B,,2 .C,2 .D,2 z2 | (C,B,,=A,,B,,) .C,2 z2 | z8 | %45
[K:treble] [DF]4 [CE]4 | [B,D]4 [A,D]4 | [G,B,]8- | [G,B,]2 ([G,B,][A,C]) .[B,D]2 .[CE]2 | [D_F]8 | %50
 z8 :| %51
V:4
|: .B,2 .C2 .D2 .E2 | .F2 .D2 G2 FE | .F2 .D2 .C2 .E2 |[M:3/2] .D2 .B,2 =A,2 B,C .B,2 .G,2 | %4
[M:2/2][K:bass] F,2 .G,2 F,2 .G,2 | .=E,2 .F,2 z4 | G,2 .F,2 G,2 .F,2 | =E,2 .F,2 .G,2 F,2 | %8
[K:treble] .B,2 .C2 .D2 .E2 | .F2 .D2 G2 FE | .F2 .D2 .C2 .E2 | .D2 .B,2 =A,2 B,C | %12
[K:bass] .[B,,,B,,]2 z2 .[B,,,B,,]2 z2 | .[B,,,B,,]2 z2 z2 z2 | .[B,,,B,,]2 z2 .[B,,,B,,]2 z2 | %15
 .[B,,,B,,]2 z2 [F,,,F,,]4 | .[G,,,G,,]2 z2 .[G,,,G,,]2 z2 | .[G,,,G,,]2 z2 z2 z2 | %18
 .[G,,,G,,]2 z2 .[G,,,G,,]2 z2 | .[G,,,G,,]2 z2 [G,,,G,,]4 | .F,,2 z C,, D,,.B,,, z D,, | %21
 .E,,2 .E,,2 D,,2 .=A,,,2 | .[B,,,B,,]2 z2 .[F,,,F,,]2 z2 | .[B,,,B,,]2 z2 z2 .[F,,,F,,]2 | %24
 .[B,,,B,,]2 z2 .[F,,,F,,]2 z2 | .[B,,,B,,]2 z2 [_F,,,_F,,]4 | .[G,,,G,,]2 z2 .[D,,D,]2 z2 | %27
 .[B,,,B,,]2 z2 .[F,,,F,,]2 z2 | .[G,,,G,,]2 z2 .[D,,D,]2 z2 | .[B,,,B,,]2 z2 .[G,,,G,,]2 z2 | %30
 .[B,,,B,,]2 z2 .[F,,,F,,]2 z2 | .[B,,,B,,]2 z2 z2 .[F,,,F,,]2 | .[B,,,B,,]2 z2 .[F,,,F,,]2 z2 | %33
 .[B,,,B,,]2 z2 [_F,,,_F,,]4 | .[G,,,G,,]2 z2 .[D,,D,]2 z2 | .[B,,,B,,]2 z2 .[F,,,F,,]2 z2 | %36
 .[G,,,G,,]2 z2 .[D,,D,]2 z2 | .[B,,,B,,]2 z2 .[G,,,G,,]2 z2 | .F,,2 z C,, D,,.B,,, z D,, | %39
 .E,,2 .E,,2 D,,2 .=A,,,2 | .B,,,2 .C,,2 .D,,2 z2 | (C,,B,,,=A,,,B,,,) .C,,2 z2 | %42
 .B,,,2 .C,,2 .D,,2 z2 | (C,,B,,,=A,,,B,,,) .C,,2 z2 | .[B,,,B,,]2 .[C,,C,]2 .[D,,D,]2 .[E,,E,]2 | %45
 [D,,D,]4 [C,,C,]4 | [B,,,B,,]4 [A,,,A,,]4 | [G,,,G,,]8- | [G,,,G,,]8- | [G,,,G,,]8 | z8 :| %51
V:5
|: x8 | x8 | x8 |[M:3/2] x12 |[M:2/2] x8 | x8 | x8 | x8 |[K:treble] x8 | x8 | x8 | x8 | x8 | x8 | %14
 x8 | x8 | x8 | x8 | x8 | x8 |[K:bass] x8 | x8 |[K:treble] x8 | x8 | x8 | x4 .A/.=G/._G/.F/ =E2 | %26
 x8 | x8 | x8 | x8 | x8 | x8 | x8 | x4 .A/.=G/._G/.F/ =E2 | x8 | x8 | x8 | x8 |[K:bass] x8 | x8 | %40
 x8 | x8 | x8 | x8 | x8 |[K:treble] x8 | x8 | x8 | x8 | x8 | x8 :| %51

